assets/event_schedule.svg

<svg xmlns="http://www.w3.org/2000/svg" height="64" width="64" viewBox="0 0 16 16" version="1.1">
    <path fill="#gray" d="M4.75,0c.414214,0,.75.335786.75.75v1.25h5v-1.25c0-.414214.335786-.75.75-.75s.75.335786.75.75L12,2h1.25C14.216,2,15,2.784,15,3.75v10.5c0,.966498-.783502,1.75-1.75,1.75h-10.5C1.783502,16,1,15.216498,1,14.25v-10.5C1,2.784,1.784,2,2.75,2L4,2v-1.25c0-.414214.335786-.75.75-.75ZM2.5,7.5v6.75c0,.138.112.25.25.25h10.5c.138071,0,.25-.111929.25-.25v-6.75h-11Zm10.75-4h-10.5c-.138071,0-.25.111929-.25.25v2.25h11v-2.25c0-.138071-.111929-.25-.25-.25Z">
    </path>
</svg>

<svg xmlns="http://www.w3.org/2000/svg" viewBox="0 0 16 16" width="16" height="16"><path d="M4.75 0a.75.75 0 0 1 .75.75V2h5V.75a.75.75 0 0 1 1.5 0V2h1.25c.966 0 1.75.784 1.75 1.75v10.5A1.75 1.75 0 0 1 13.25 16H2.75A1.75 1.75 0 0 1 1 14.25V3.75C1 2.784 1.784 2 2.75 2H4V.75A.75.75 0 0 1 4.75 0ZM2.5 7.5v6.75c0 .138.112.25.25.25h10.5a.25.25 0 0 0 .25-.25V7.5Zm10.75-4H2.75a.25.25 0 0 0-.25.25V6h11V3.75a.25.25 0 0 0-.25-.25Z"></path></svg>
